X:1
T:Finchley, 86.86.86 D
T:Finchley, 86.86.86 D
T:James McGranahan, 1879
T:Public Domain Courtesy of the Cyber Hymnal™
C:James McGranahan, 1879
Z:Public Domain
Z:Courtesy of the Cyber Hymnal™
%%score ( 1 2 ) ( 3 4 )
L:1/8
Q:1/4=93
M:3/4
K:Bb
V:1 treble 
V:2 treble 
V:3 bass 
V:4 bass 
V:1
 [DF][^C=E] [DF] | [DB]3 [DF] [^C=E][DF] | [EG]4 [EB]2 | [EA]3 E [EA][EG] | [DF]3 [DF] [^C=E][DF] | %5
 [DB]3 [DF] [^C=E][DF] | [EG]4 [EG]2 | [=Ec]3 [EB] [EA][EG] | F3 F [FA][FB] | [Fc]3 [FA] [FB][Fc] | %10
 [FB]4 F2 | [Ge]3 [Ge] [Fd][FB] | [Ec]3 [DF] [^C=E][DF] | [DB]3 [DF] [^C=E][DF] | [EG]4 [Ge]2 | %15
 !>![Fe]2 z [DB] [Ec]>[CA] | [DB]3 [Fd] [Fd][^Fd] | [Gd]3 [Ec] [DB][DA] | [DG]4 [EG]2 | %19
 [=Ec]3 c [Bd][B=e] | [Af]3 [DF] [^C=E][DF] | [Fd]3 [DF] [^C=E][DF] | [EG]4 [Ge]2 | %23
 !>![Fd]2 z"^riten." [DB] [Ec]>[CA] | [DB]3 |] %25
V:2
 x3 | x6 | x6 | x3 E x2 | x6 | x6 | x6 | x6 | F3 F x2 | x6 | x4 F2 | x6 | x6 | x6 | x6 | x6 | x6 | %17
 x6 | x6 | x3 =E/G/ x2 | x6 | x6 | x6 | x6 | x3 |] %25
V:3
 [B,,B,][B,,B,] [B,,B,] | [B,,F,]3 [B,,B,] [B,,B,][B,,B,] | [E,B,]4 [E,G,]2 | F,3 [F,A,] [F,C]F, | %4
 [B,,B,]3 [B,,B,] [B,,B,][B,,B,] | [B,,F,]3 [B,,B,] [B,,B,][B,,B,] | [E,B,]4 [E,B,]2 | %7
 [C,B,]3 [C,G,] [C,C][C,B,] | [F,A,]3 [F,A,] [F,C][F,D] | [F,E]3 [F,C] [F,D][F,E] | [B,D]4 [B,D]2 | %11
 [E,B,]3 [E,B,] [B,,B,][D,B,] | [F,A,]3 [B,,B,] [B,,B,][B,,B,] | [B,,F,]3 [B,,B,] [B,,B,][B,,B,] | %14
 [E,B,]4 [E,B,]2 | !>![F,B,]2 z [F,B,] [F,A,]>F, | [B,,F,]3 [B,,B,] [B,,B,][A,,D] | %17
 [G,,B,]3 [C,G,] [D,^F,][D,A,] | [G,B,]4 [E,B,]2 | [C,B,]3 [C,B,] [C,G,][C,C] | %20
 [F,C]3 [B,,B,] [B,,B,][B,,B,] | [B,,B,]3 [B,,B,] [B,,B,][B,,B,] | [E,B,]4 [E,B,]2 | %23
 [F,B,]2 z F, F,>F, | [B,,F,]3 |] %25
V:4
 x3 | x6 | x6 | F,3 F, x2 | x6 | x6 | x6 | x6 | x6 | x6 | x6 | x6 | x6 | x6 | x6 | x11/2 F,/ | x6 | %17
 x6 | x6 | x6 | x6 | x6 | x6 | x3 F, F,>F, | x3 |] %25

